www/assets/icons/soap.svg

<svg xmlns="http://www.w3.org/2000/svg" width="24" height="24" viewBox="0 0 24 24" fill='currentColor'><path d="m9.62 5-7.18 6.79c-.6.56-.94 1.35-.94 2.18V20c0 1.66 1.34 3 3 3h13.75a1.25 1.25 0 0 0 0-2.5H12.5v-1h7.75a1.25 1.25 0 0 0 0-2.5H12.5v-1h8.75a1.25 1.25 0 0 0 0-2.5H12.5v-1h6.75a1.25 1.25 0 0 0 0-2.5H9.36c.64-1.11 1.48-2.58 1.49-2.61a1.065 1.065 0 0 0-.12-1.23C10.72 6.12 9.62 5 9.62 5m4.88 1.25c.41 0 .75.34.75.75s-.34.75-.75.75-.75-.34-.75-.75.34-.75.75-.75m0-1.5c-1.24 0-2.25 1.01-2.25 2.25s1.01 2.25 2.25 2.25S16.75 8.24 16.75 7s-1.01-2.25-2.25-2.25m5.75.75c.28 0 .5.22.5.5s-.22.5-.5.5-.5-.22-.5-.5.22-.5.5-.5m0-1.5c-1.1 0-2 .9-2 2s.9 2 2 2 2-.9 2-2-.9-2-2-2M17 1c-.83 0-1.5.67-1.5 1.5S16.17 4 17 4s1.5-.67 1.5-1.5S17.83 1 17 1"/></svg>

<svg width="24" height="24" viewBox="0 0 24 24" xmlns="http://www.w3.org/2000/svg" fill='currentColor'><path d="M9.62 5L2.44 11.79C1.84 12.35 1.5 13.14 1.5 13.97V20C1.5 21.66 2.84 23 4.5 23H18.25C18.94 23 19.5 22.44 19.5 21.75C19.5 21.06 18.94 20.5 18.25 20.5H12.5V19.5H20.25C20.94 19.5 21.5 18.94 21.5 18.25C21.5 17.56 20.94 17 20.25 17H12.5V16H21.25C21.94 16 22.5 15.44 22.5 14.75C22.5 14.06 21.94 13.5 21.25 13.5H12.5V12.5H19.25C19.94 12.5 20.5 11.94 20.5 11.25C20.5 10.56 19.94 10 19.25 10H9.36C10 8.89 10.84 7.42 10.85 7.39C10.94 7.23 10.99 7.06 10.99 6.86C10.99 6.6 10.9 6.36 10.73 6.16C10.72 6.12 9.62 5 9.62 5ZM14.5 6.25C14.91 6.25 15.25 6.59 15.25 7C15.25 7.41 14.91 7.75 14.5 7.75C14.09 7.75 13.75 7.41 13.75 7C13.75 6.59 14.09 6.25 14.5 6.25ZM14.5 4.75C13.26 4.75 12.25 5.76 12.25 7C12.25 8.24 13.26 9.25 14.5 9.25C15.74 9.25 16.75 8.24 16.75 7C16.75 5.76 15.74 4.75 14.5 4.75ZM20.25 5.5C20.53 5.5 20.75 5.72 20.75 6C20.75 6.28 20.53 6.5 20.25 6.5C19.97 6.5 19.75 6.28 19.75 6C19.75 5.72 19.97 5.5 20.25 5.5ZM20.25 4C19.15 4 18.25 4.9 18.25 6C18.25 7.1 19.15 8 20.25 8C21.35 8 22.25 7.1 22.25 6C22.25 4.9 21.35 4 20.25 4ZM17 1C16.17 1 15.5 1.67 15.5 2.5C15.5 3.33 16.17 4 17 4C17.83 4 18.5 3.33 18.5 2.5C18.5 1.67 17.83 1 17 1Z"/></svg>
